X: 1
T: Bronwyn and Justin's Wedding Tune
C: Peter "Puma" Hedlund
R: sk\"ankl\aat, g\aangl\aat
M: C
L: 1/8
K: Gm
D2 |:\
"Gm"G2d2 d2d2 | B2AB G3B | "Dm"A2f2 "A7"=e2^c2 |1 "D7"d3e dcBA :|2 "D7"d6 ||\
d2 |\
"Gm"g3g "F"f2e2 | "D7"d6 ga | "Gm"b3b "(A7)"a2g^f | "D7"a6 a2 |
"Gm"g3g "F"f2e2 | "Bb"d2B2 "Eb"G3A | "Gm"B2cB "F"A2c2 | "D7"d6 d2 |\
"Eb"g3g "F"f2e2 | "Gm"d2B2 "Eb"G3A | "Gm"B2cB "D7"A2D2 | "Gm"G6 |]
%%text http://www.youtube.com/watch?v=jIta3BGCuqA
